public/external-logos/convoy-logo.svg

<?xml version="1.0" encoding="UTF-8" standalone="no"?>
<svg width="240px" height="35px" viewBox="0 0 240 35" version="1.1" xmlns="http://www.w3.org/2000/svg" xmlns:xlink="http://www.w3.org/1999/xlink">
    <!-- Generator: Sketch 46.2 (44496) - http://www.bohemiancoding.com/sketch -->
    <title>Convoy_logo Copy</title>
    <desc>Created with Sketch.</desc>
    <defs></defs>
    <g id="Mobile-&gt;-Desktop" stroke="none" stroke-width="1" fill="none" fill-rule="evenodd">
        <g id="04a-AboutUs-Mobile" transform="translate(-135.000000, -163.000000)" fill="#F65335">
            <g id="marquee-and-headline" transform="translate(0.000000, -40.000000)">
                <g id="Convoy_logo-Copy" transform="translate(135.000000, 203.000000)">
                    <path d="M27.2471263,8.64530714 L13.11349,8.64530714 C10.9766583,8.64530714 10.1505512,9.71396316 10.1505512,11.3652168 L10.1505512,23.0704824 C10.1505512,24.721736 10.9766583,25.9359214 13.11349,25.9359214 L27.2471263,25.9359214 L27.3441459,33.8041115 C27.3441459,33.8041115 17.9217217,34.5812285 10.1025217,34.5812285 C3.3510171,34.5812285 0,30.1615554 0,25.2558239 L0,9.17987529 C0,4.27414379 3.3510171,0 10.1025217,0 C18.1652312,0 27.3441459,0.583077937 27.3441459,0.583077937 L27.2471263,8.64530714" id="Fill-1"></path>
                    <path d="M47.3076009,11.0251681 L47.3076009,23.4105311 C47.3076009,25.0617848 48.0357279,26.1789506 50.1735203,26.1789506 L55.9043983,26.1789506 C57.9927203,26.1789506 58.7698373,25.0617848 58.7698373,23.4105311 L58.7698373,11.0251681 C58.7698373,9.37391441 57.9927203,8.35424846 55.9043983,8.35424846 L50.1735203,8.35424846 C48.0357279,8.35424846 47.3076009,9.37391441 47.3076009,11.0251681 Z M37.2055596,25.2073141 L37.2055596,9.37391441 C37.2055596,4.4686632 40.6055667,0.243029189 47.3561107,0.243029189 L58.6728178,0.243029189 C65.423842,0.243029189 68.872359,4.4686632 68.872359,9.37391441 L68.872359,25.2073141 C68.872359,30.0645359 65.423842,34.3386796 58.6728178,34.3386796 L47.3561107,34.3386796 C40.6055667,34.3386796 37.2055596,30.0645359 37.2055596,25.2073141 L37.2055596,25.2073141 Z" id="Fill-4"></path>
                    <path d="M112.683414,34.2896896 L104.620704,34.2896896 C102.920941,34.2896896 102.434882,34.0471407 101.512236,32.6869457 L90.9246163,17.2906143 L90.5840873,17.2906143 L90.5840873,34.2896896 L80.4815656,34.2896896 L80.4815656,0.291538968 L88.5923046,0.291538968 C90.7300969,0.291538968 90.6811068,0.485578084 91.2646651,1.31168521 C91.6527433,1.89428285 100.540599,14.3766655 102.386853,17.3396043 L102.629402,17.3396043 L102.629402,0.291538968 L112.683414,0.291538968 L112.683414,34.2896896" id="Fill-5"></path>
                    <path d="M145.857378,0.291538968 L157.223075,0.291538968 C157.223075,0.291538968 149.305415,29.5784775 148.432239,32.8329553 C148.0432,34.2411798 147.508632,34.4356992 146.731515,34.4356992 L132.549369,34.4356992 C131.772252,34.4356992 131.286674,34.2411798 130.898595,32.8329553 C129.974988,29.5784775 122.058769,0.291538968 122.058769,0.291538968 L133.423505,0.291538968 L139.349383,24.4301971 L139.931981,24.4301971 L145.857378,0.291538968" id="Fill-6"></path>
                    <path d="M175.534316,11.0251681 L175.534316,23.4105311 C175.534316,25.0617848 176.262443,26.1789506 178.400235,26.1789506 L184.130633,26.1789506 C186.219435,26.1789506 186.996552,25.0617848 186.996552,23.4105311 L186.996552,11.0251681 C186.996552,9.37391441 186.219435,8.35424846 184.130633,8.35424846 L178.400235,8.35424846 C176.262443,8.35424846 175.534316,9.37391441 175.534316,11.0251681 Z M165.431794,25.2073141 L165.431794,9.37391441 C165.431794,4.4686632 168.832282,0.243029189 175.582346,0.243029189 L186.899053,0.243029189 C193.650557,0.243029189 197.098594,4.4686632 197.098594,9.37391441 L197.098594,25.2073141 C197.098594,30.0645359 193.650557,34.3386796 186.899053,34.3386796 L175.582346,34.3386796 C168.832282,34.3386796 165.431794,30.0645359 165.431794,25.2073141 L165.431794,25.2073141 Z" id="Fill-7"></path>
                    <polyline id="Fill-8" points="221.287683 12.7734413 228.136207 0.291538968 239.646953 0.291538968 226.387934 24.3816873 226.387934 34.2896896 216.285412 34.2896896 216.285412 24.5272166 202.928893 0.291538968 214.439639 0.291538968 221.287683 12.7734413"></polyline>
                </g>
            </g>
        </g>
    </g>
</svg>

<svg width="240" height="35" xmlns="http://www.w3.org/2000/svg"><g fill="#F65335" fill-rule="evenodd"><path d="M27.247 8.645H13.113c-2.136 0-2.962 1.069-2.962 2.72V23.07c0 1.652.826 2.866 2.962 2.866h14.134l.097 7.868s-9.422.777-17.241.777C3.35 34.581 0 30.161 0 25.256V9.18C0 4.274 3.351 0 10.103 0c8.062 0 17.241.583 17.241.583l-.097 8.062M47.308 11.025v12.386c0 1.65.728 2.768 2.866 2.768h5.73c2.089 0 2.866-1.117 2.866-2.768V11.025c0-1.651-.777-2.67-2.866-2.67h-5.73c-2.138 0-2.866 1.019-2.866 2.67ZM37.206 25.207V9.374c0-4.905 3.4-9.131 10.15-9.131h11.317c6.75 0 10.2 4.226 10.2 9.13v15.834c0 4.858-3.45 9.132-10.2 9.132H47.356c-6.75 0-10.15-4.274-10.15-9.132ZM112.683 34.29h-8.062c-1.7 0-2.186-.243-3.109-1.603L90.925 17.29h-.34V34.29H80.481V.292h8.11c2.138 0 2.09.194 2.673 1.02.388.582 9.276 13.065 11.122 16.028h.242V.292h10.054V34.29M145.857.292h11.366s-7.918 29.286-8.79 32.541c-.39 1.408-.924 1.603-1.701 1.603h-14.183c-.777 0-1.262-.195-1.65-1.603-.924-3.255-8.84-32.541-8.84-32.541h11.365l5.925 24.138h.583L145.857.292M175.534 11.025v12.386c0 1.65.728 2.768 2.866 2.768h5.73c2.09 0 2.867-1.117 2.867-2.768V11.025c0-1.651-.778-2.67-2.866-2.67h-5.73c-2.139 0-2.867 1.019-2.867 2.67Zm-10.102 14.182V9.374c0-4.905 3.4-9.131 10.15-9.131H186.9c6.752 0 10.2 4.226 10.2 9.13v15.834c0 4.858-3.448 9.132-10.2 9.132h-11.317c-6.75 0-10.15-4.274-10.15-9.132ZM221.288 12.773 228.136.292h11.511l-13.26 24.09v9.908h-10.102v-9.763L202.93.292h11.51l6.849 12.481"/></g></svg>
